docs/assets/img/details/btnIcons/share.svg

<?xml version="1.0" encoding="UTF-8"?>
<svg width="27px" height="28px" viewBox="0 0 27 28" version="1.1" xmlns="http://www.w3.org/2000/svg" xmlns:xlink="http://www.w3.org/1999/xlink">
    <title>share</title>
    <g id="Welcome" stroke="none" stroke-width="1" fill="none" fill-rule="evenodd">
        <g id="lpw-featured-development-detailed-page-1.0" transform="translate(-1374.000000, -1833.000000)" fill="#018E37" fill-rule="nonzero">
            <g id="share" transform="translate(1374.000000, 1833.000000)">
                <path d="M21.328125,18.15625 C19.7074062,18.15625 18.2673203,18.9438594 17.3699531,20.1562266 L9.64425,16.2080625 C9.77385938,15.7677188 9.84375,15.3020547 9.84375,14.8203125 C9.84375,14.1678359 9.71583594,13.5447812 9.48423437,12.9744453 L17.5812656,8.10955469 C18.4847031,9.16994531 19.8291406,9.84375 21.328125,9.84375 C24.0420469,9.84375 26.25,7.63579688 26.25,4.921875 C26.25,2.20795312 24.0420469,0 21.328125,0 C18.6142031,0 16.40625,2.20795312 16.40625,4.921875 C16.40625,5.54914062 16.5244297,6.14922656 16.7392969,6.70140625 L8.62203125,11.5784375 C7.71925,10.5493281 6.39521094,9.8984375 4.921875,9.8984375 C2.20795312,9.8984375 0,12.1063906 0,14.8203125 C0,17.5342344 2.20795312,19.7421875 4.921875,19.7421875 C6.56917188,19.7421875 8.029875,18.9286563 8.92374219,17.6823281 L16.6270234,21.6190078 C16.4835781,22.0802422 16.40625,22.5702969 16.40625,23.078125 C16.40625,25.7920469 18.6142031,28 21.328125,28 C24.0420469,28 26.25,25.7920469 26.25,23.078125 C26.25,20.3642031 24.0420469,18.15625 21.328125,18.15625 Z M21.328125,1.640625 C23.1374063,1.640625 24.609375,3.11259375 24.609375,4.921875 C24.609375,6.73115625 23.1374063,8.203125 21.328125,8.203125 C19.5188437,8.203125 18.046875,6.73115625 18.046875,4.921875 C18.046875,3.11259375 19.5188437,1.640625 21.328125,1.640625 Z M4.921875,18.1015625 C3.11259375,18.1015625 1.640625,16.6295938 1.640625,14.8203125 C1.640625,13.0110313 3.11259375,11.5390625 4.921875,11.5390625 C6.73115625,11.5390625 8.203125,13.0110313 8.203125,14.8203125 C8.203125,16.6295938 6.73115625,18.1015625 4.921875,18.1015625 Z M21.328125,26.359375 C19.5188437,26.359375 18.046875,24.8874063 18.046875,23.078125 C18.046875,21.2688437 19.5188437,19.796875 21.328125,19.796875 C23.1374063,19.796875 24.609375,21.2688437 24.609375,23.078125 C24.609375,24.8874063 23.1374063,26.359375 21.328125,26.359375 Z" id="Shape"></path>
            </g>
        </g>
    </g>
</svg>

<svg width="27" height="28" xmlns="http://www.w3.org/2000/svg"><path d="M21.328 18.156a4.92 4.92 0 00-3.958 2l-7.726-3.948a4.908 4.908 0 00-.16-3.234l8.097-4.864a4.913 4.913 0 003.747 1.734 4.927 4.927 0 004.922-4.922A4.927 4.927 0 0021.328 0a4.927 4.927 0 00-4.589 6.701l-8.117 4.877a4.912 4.912 0 00-3.7-1.68A4.927 4.927 0 000 14.82a4.919 4.919 0 008.924 2.862l7.703 3.937A4.927 4.927 0 0021.328 28a4.927 4.927 0 004.922-4.922 4.927 4.927 0 00-4.922-4.922zm0-16.515a3.285 3.285 0 013.281 3.28 3.285 3.285 0 01-3.28 3.282 3.285 3.285 0 01-3.282-3.281 3.285 3.285 0 013.281-3.281zM4.922 18.1a3.285 3.285 0 01-3.281-3.28 3.285 3.285 0 013.28-3.282 3.285 3.285 0 013.282 3.281 3.285 3.285 0 01-3.281 3.282zm16.406 8.258a3.285 3.285 0 01-3.281-3.28 3.285 3.285 0 013.281-3.282 3.285 3.285 0 013.281 3.281 3.285 3.285 0 01-3.28 3.281z" fill="#018E37"/></svg>
